client/public/images/trigonometry-appendix/solving-right-triangles-example-1.svg

<svg version="1.1" xmlns="http://www.w3.org/2000/svg" xmlns:xlink="http://www.w3.org/1999/xlink" width="316" height="255" viewBox="0 0 316 255">
  <defs>
    <clipPath id="DrXnwTpSfkhX">
      <path fill="none" stroke="none" d=" M 0 0 L 316 0 L 316 255 L 0 255 L 0 0 Z" />
    </clipPath>
  </defs>
  <g transform="scale(1,1)" clip-path="url(#DrXnwTpSfkhX)">
    <g transform="translate(-448,-75)">
      <rect fill="rgba(255,255,255,0)" stroke="none" x="0" y="0" width="1478" height="956" fill-opacity="1" />
      <path fill="none" stroke="rgb(0,0,0)" paint-order="fill stroke markers" d=" M 483.8393654800462 294.0305091321402 L 483.8393654800462 111.71030210242677" stroke-opacity="0.6980392156862745" stroke-linecap="round" stroke-linejoin="round" stroke-miterlimit="10" stroke-width="2.5" />
      <path fill="none" stroke="rgb(0,0,0)" paint-order="fill stroke markers" d=" M 483.8393654800462 111.71030210242677 L 726.9329748529979 294.0305091321402" stroke-opacity="0.6980392156862745" stroke-linecap="round" stroke-linejoin="round" stroke-miterlimit="10" stroke-width="2.5" />
      <path fill="none" stroke="rgb(0,0,0)" paint-order="fill stroke markers" d=" M 726.9329748529979 294.0305091321402 L 483.8393654800462 294.0305091321402" stroke-opacity="0.6980392156862745" stroke-linecap="round" stroke-linejoin="round" stroke-miterlimit="10" stroke-width="2.5" />
      <path fill="none" stroke="rgb(0,0,0)" paint-order="fill stroke markers" d=" M 483.8393654800462 269.72114819484506 L 508.1487264173413 269.72114819484506" stroke-opacity="0.6980392156862745" stroke-linecap="round" stroke-linejoin="round" stroke-miterlimit="10" stroke-width="2.5" />
      <path fill="none" stroke="rgb(0,0,0)" paint-order="fill stroke markers" d=" M 508.1487264173413 269.72114819484506 L 508.1487264173413 294.0305091321402" stroke-opacity="0.6980392156862745" stroke-linecap="round" stroke-linejoin="round" stroke-miterlimit="10" stroke-width="2.5" />
      <g transform="scale(19,19)">
        <g transform="translate(32.73684210526316,10.445029684210526)">
          <path fill="rgb(0,0,0)" stroke="none" paint-order="stroke fill markers" d=" M 0.299 -0.678 L 0.299 -0.058 L 0.424 -0.058 L 0.424 0 L 0.095 0 L 0.095 -0.058 L 0.22 -0.058 L 0.22 -0.578 Q 0.169 -0.556 0.089 -0.554 L 0.089 -0.612 Q 0.22 -0.617 0.279 -0.678 L 0.299 -0.678 Z" />
        </g>
      </g>
      <g transform="scale(19,19)">
        <g transform="translate(25.94736842105263,9.566109463157895)">
          <path fill="rgb(0,0,0)" stroke="none" paint-order="stroke fill markers" d=" M 0.153 -0.592 L 0.153 -0.386 Q 0.199 -0.427 0.26 -0.427 Q 0.338 -0.427 0.3935 -0.3615 Q 0.449 -0.296 0.449 -0.203 Q 0.449 -0.109 0.3845 -0.043500000000000004 Q 0.32 0.022 0.23 0.022 Q 0.171 0.022 0.121 -0.005 Q 0.07100000000000001 -0.032 0.039 -0.076 L 0.07200000000000001 -0.132 Q 0.094 -0.091 0.137 -0.065 Q 0.18 -0.039 0.229 -0.039 Q 0.23700000000000002 -0.039 0.2465 -0.04 Q 0.256 -0.041 0.2785 -0.05 Q 0.301 -0.059000000000000004 0.317 -0.0745 Q 0.333 -0.09 0.34650000000000003 -0.124 Q 0.36 -0.158 0.36 -0.20500000000000002 Q 0.36 -0.28800000000000003 0.33 -0.327 Q 0.3 -0.366 0.259 -0.366 Q 0.219 -0.366 0.19 -0.3435 Q 0.161 -0.321 0.147 -0.28700000000000003 L 0.081 -0.28700000000000003 L 0.081 -0.656 L 0.41600000000000004 -0.656 L 0.41600000000000004 -0.592 L 0.153 -0.592 Z" />
        </g>
        <g transform="translate(26.44737042105263,9.566109463157895)">
          <path fill="rgb(0,0,0)" stroke="none" paint-order="stroke fill markers" d=" M 0.092 -0.514 L 0.056 -0.5680000000000001 Q 0.08700000000000001 -0.62 0.1385 -0.649 Q 0.19 -0.678 0.248 -0.678 Q 0.323 -0.678 0.3765 -0.634 Q 0.43 -0.59 0.43 -0.526 Q 0.43 -0.47600000000000003 0.402 -0.4295 Q 0.374 -0.383 0.319 -0.354 Q 0.375 -0.337 0.41600000000000004 -0.2905 Q 0.457 -0.244 0.457 -0.18 Q 0.457 -0.099 0.3965 -0.0385 Q 0.336 0.022 0.247 0.022 Q 0.123 0.022 0.042 -0.082 L 0.053 -0.14200000000000002 Q 0.085 -0.093 0.138 -0.066 Q 0.191 -0.039 0.245 -0.039 Q 0.301 -0.039 0.3345 -0.08 Q 0.368 -0.121 0.368 -0.181 Q 0.368 -0.203 0.3625 -0.225 Q 0.357 -0.247 0.34400000000000003 -0.2705 Q 0.331 -0.294 0.3035 -0.309 Q 0.276 -0.324 0.23800000000000002 -0.324 L 0.167 -0.324 L 0.167 -0.385 Q 0.242 -0.391 0.246 -0.392 Q 0.291 -0.402 0.3195 -0.4405 Q 0.34800000000000003 -0.47900000000000004 0.34800000000000003 -0.526 Q 0.34800000000000003 -0.5710000000000001 0.3185 -0.5955 Q 0.289 -0.62 0.247 -0.62 Q 0.199 -0.62 0.156 -0.592 Q 0.113 -0.5640000000000001 0.092 -0.514 Z" />
        </g>
        <g transform="translate(26.947372421052627,9.566109463157895)">
          <path fill="rgb(0,0,0)" stroke="none" paint-order="stroke fill markers" d=" M 0.18 -0.083 L 0.18 0 L 0.097 0 L 0.097 -0.083 L 0.18 -0.083 Z" />
        </g>
        <g transform="translate(27.225151421052626,9.566109463157895)">
          <path fill="rgb(0,0,0)" stroke="none" paint-order="stroke fill markers" d=" M 0.299 -0.678 L 0.299 -0.058 L 0.424 -0.058 L 0.424 0 L 0.095 0 L 0.095 -0.058 L 0.22 -0.058 L 0.22 -0.578 Q 0.169 -0.556 0.089 -0.554 L 0.089 -0.612 Q 0.22 -0.617 0.279 -0.678 L 0.299 -0.678 Z" />
        </g>
        <g transform="translate(27.725153421052624,9.566109463157895)">
          <path fill="rgb(0,0,0)" stroke="none" paint-order="stroke fill markers" d=" M 0.092 -0.514 L 0.056 -0.5680000000000001 Q 0.08700000000000001 -0.62 0.1385 -0.649 Q 0.19 -0.678 0.248 -0.678 Q 0.323 -0.678 0.3765 -0.634 Q 0.43 -0.59 0.43 -0.526 Q 0.43 -0.47600000000000003 0.402 -0.4295 Q 0.374 -0.383 0.319 -0.354 Q 0.375 -0.337 0.41600000000000004 -0.2905 Q 0.457 -0.244 0.457 -0.18 Q 0.457 -0.099 0.3965 -0.0385 Q 0.336 0.022 0.247 0.022 Q 0.123 0.022 0.042 -0.082 L 0.053 -0.14200000000000002 Q 0.085 -0.093 0.138 -0.066 Q 0.191 -0.039 0.245 -0.039 Q 0.301 -0.039 0.3345 -0.08 Q 0.368 -0.121 0.368 -0.181 Q 0.368 -0.203 0.3625 -0.225 Q 0.357 -0.247 0.34400000000000003 -0.2705 Q 0.331 -0.294 0.3035 -0.309 Q 0.276 -0.324 0.23800000000000002 -0.324 L 0.167 -0.324 L 0.167 -0.385 Q 0.242 -0.391 0.246 -0.392 Q 0.291 -0.402 0.3195 -0.4405 Q 0.34800000000000003 -0.47900000000000004 0.34800000000000003 -0.526 Q 0.34800000000000003 -0.5710000000000001 0.3185 -0.5955 Q 0.289 -0.62 0.247 -0.62 Q 0.199 -0.62 0.156 -0.592 Q 0.113 -0.5640000000000001 0.092 -0.514 Z" />
        </g>
        <g transform="translate(28.225155421052623,9.153217463157896) scale(0.7,0.7)">
          <path fill="rgb(0,0,0)" stroke="none" paint-order="stroke fill markers" d=" M 0.443 -0.25 L 0.443 -0.25 Q 0.443 -0.161 0.376 -0.10300000000000001 Q 0.321 -0.056 0.249 -0.056 Q 0.161 -0.056 0.10300000000000001 -0.124 Q 0.056 -0.179 0.056 -0.25 Q 0.056 -0.339 0.123 -0.397 Q 0.178 -0.444 0.25 -0.444 Q 0.338 -0.444 0.396 -0.376 Q 0.443 -0.321 0.443 -0.25 M 0.25 -0.096 L 0.25 -0.096 Q 0.325 -0.096 0.371 -0.156 Q 0.403 -0.198 0.403 -0.25 Q 0.403 -0.326 0.343 -0.372 Q 0.302 -0.404 0.25 -0.404 Q 0.17300000000000001 -0.404 0.126 -0.342 Q 0.096 -0.301 0.096 -0.25 Q 0.096 -0.17500000000000002 0.155 -0.129 Q 0.197 -0.096 0.25 -0.096 Z" />
        </g>
      </g>
      <g transform="scale(19,19)">
        <g transform="translate(24.36842105263158,5.378655526315789)">
          <path fill="rgb(0,0,0)" stroke="none" paint-order="stroke fill markers" d=" M 0.377 -0.6940000000000001 L 0.638 0 L 0.546 0 L 0.47000000000000003 -0.20400000000000001 L 0.179 -0.20400000000000001 L 0.10200000000000001 0 L 0.028 0 L 0.289 -0.6940000000000001 L 0.377 -0.6940000000000001 M 0.448 -0.26 L 0.357 -0.517 Q 0.328 -0.6 0.325 -0.622 L 0.324 -0.622 Q 0.318 -0.589 0.265 -0.441 L 0.2 -0.26 L 0.448 -0.26 Z" />
        </g>
      </g>
      <g transform="scale(19,19)">
        <g transform="translate(24.36842105263158,16.641813421052632)">
          <path fill="rgb(0,0,0)" stroke="none" paint-order="stroke fill markers" d=" M 0.097 -0.6940000000000001 L 0.334 -0.6940000000000001 Q 0.439 -0.6940000000000001 0.511 -0.642 Q 0.583 -0.59 0.583 -0.52 Q 0.583 -0.465 0.536 -0.423 Q 0.489 -0.381 0.417 -0.363 Q 0.498 -0.35000000000000003 0.554 -0.301 Q 0.61 -0.252 0.61 -0.188 Q 0.61 -0.113 0.5385 -0.0565 Q 0.467 0 0.361 0 L 0.097 0 L 0.097 -0.6940000000000001 M 0.18 -0.391 L 0.296 -0.391 Q 0.393 -0.391 0.449 -0.43 Q 0.505 -0.46900000000000003 0.505 -0.519 Q 0.505 -0.5690000000000001 0.447 -0.6035 Q 0.389 -0.638 0.306 -0.638 L 0.18 -0.638 L 0.18 -0.391 M 0.18 -0.056 L 0.333 -0.056 Q 0.41400000000000003 -0.056 0.47150000000000003 -0.0945 Q 0.529 -0.133 0.529 -0.189 Q 0.529 -0.248 0.4675 -0.289 Q 0.406 -0.33 0.325 -0.33 L 0.18 -0.33 L 0.18 -0.056 Z" />
        </g>
      </g>
      <g transform="scale(19,19)">
        <g transform="translate(38.63157894736842,16.589181842105262)">
          <path fill="rgb(163,143,140)" stroke="none" paint-order="stroke fill markers" d=" M 0.577 -0.681 L 0.562 -0.6 Q 0.481 -0.652 0.393 -0.652 Q 0.291 -0.652 0.2235 -0.562 Q 0.156 -0.47200000000000003 0.156 -0.34700000000000003 Q 0.156 -0.225 0.222 -0.1335 Q 0.28800000000000003 -0.042 0.396 -0.042 Q 0.451 -0.042 0.4905 -0.054 Q 0.53 -0.066 0.582 -0.10300000000000001 L 0.588 -0.034 Q 0.534 -0.001 0.495 0.0105 Q 0.456 0.022 0.395 0.022 Q 0.253 0.022 0.16 -0.088 Q 0.067 -0.198 0.067 -0.34700000000000003 Q 0.067 -0.498 0.16 -0.607 Q 0.253 -0.716 0.394 -0.716 Q 0.485 -0.716 0.577 -0.681 Z" />
        </g>
      </g>
      <g transform="scale(19,19)">
        <g transform="translate(31.63157894736842,16.549708157894734)">
          <path fill="rgb(163,143,140)" stroke="none" paint-order="stroke fill markers" d=" M 0.399 -0.289 L 0.399 0 L 0.324 0 L 0.324 -0.036000000000000004 Q 0.263 0.011 0.158 0.011 Q 0.1 0.011 0.07200000000000001 -0.029500000000000002 Q 0.044 -0.07 0.044 -0.113 Q 0.044 -0.176 0.1225 -0.2095 Q 0.201 -0.243 0.321 -0.245 L 0.321 -0.28800000000000003 Q 0.321 -0.341 0.296 -0.3715 Q 0.271 -0.402 0.234 -0.402 Q 0.153 -0.402 0.083 -0.352 L 0.077 -0.418 Q 0.152 -0.461 0.234 -0.461 Q 0.304 -0.461 0.35150000000000003 -0.41250000000000003 Q 0.399 -0.364 0.399 -0.289 M 0.321 -0.132 L 0.321 -0.194 Q 0.116 -0.184 0.116 -0.115 Q 0.116 -0.085 0.14350000000000002 -0.0675 Q 0.171 -0.05 0.209 -0.05 Q 0.256 -0.05 0.28700000000000003 -0.069 Q 0.321 -0.088 0.321 -0.132 Z" />
        </g>
      </g>
      <g transform="scale(19,19)">
        <g transform="translate(24.473684210526315,10.918129210526315)">
          <path fill="rgb(163,143,140)" stroke="none" paint-order="stroke fill markers" d=" M 0.41000000000000003 -0.418 L 0.398 -0.353 Q 0.358 -0.379 0.328 -0.388 Q 0.298 -0.397 0.257 -0.397 Q 0.20700000000000002 -0.397 0.17350000000000002 -0.369 Q 0.14 -0.341 0.127 -0.3035 Q 0.114 -0.266 0.114 -0.223 Q 0.114 -0.149 0.1525 -0.101 Q 0.191 -0.053 0.253 -0.053 Q 0.34 -0.053 0.40900000000000003 -0.107 L 0.41500000000000004 -0.04 Q 0.341 0.011 0.252 0.011 Q 0.16 0.011 0.098 -0.058 Q 0.036000000000000004 -0.127 0.036000000000000004 -0.222 Q 0.036000000000000004 -0.317 0.0965 -0.389 Q 0.157 -0.461 0.256 -0.461 Q 0.302 -0.461 0.334 -0.452 Q 0.366 -0.443 0.41000000000000003 -0.418 Z" />
        </g>
      </g>
    </g>
  </g>
</svg>

﻿<?xml version="1.0" encoding="UTF-8" standalone="no"?>
<svg xmlns:dc="http://purl.org/dc/elements/1.1/" xmlns:cc="http://creativecommons.org/ns#" xmlns:rdf="http://www.w3.org/1999/02/22-rdf-syntax-ns#" xmlns:svg="http://www.w3.org/2000/svg" xmlns="http://www.w3.org/2000/svg" xmlns:sodipodi="http://sodipodi.sourceforge.net/DTD/sodipodi-0.dtd" xmlns:inkscape="http://www.inkscape.org/namespaces/inkscape" version="1.1" width="316" height="255" viewBox="0 0 316 255" id="svg85" sodipodi:docname="solving-right-triangles-example-1.svg" inkscape:version="0.92.3 (2405546, 2018-03-11)">
  <metadata id="metadata89">
    <rdf:RDF>
      <cc:Work rdf:about="">
        <dc:format>image/svg+xml</dc:format>
        <dc:type rdf:resource="http://purl.org/dc/dcmitype/StillImage" />
        <dc:title>
        </dc:title>
      </cc:Work>
    </rdf:RDF>
  </metadata>
  <sodipodi:namedview pagecolor="#ffffff" bordercolor="#666666" borderopacity="1" objecttolerance="10" gridtolerance="10" guidetolerance="10" inkscape:pageopacity="0" inkscape:pageshadow="2" inkscape:window-width="1920" inkscape:window-height="1057" id="namedview87" showgrid="false" inkscape:zoom="0.91909385" inkscape:cx="154.5" inkscape:cy="125" inkscape:window-x="1912" inkscape:window-y="-8" inkscape:window-maximized="1" inkscape:current-layer="svg85" />
  <defs id="defs5">
    <clipPath id="HMQowvFLLtJB">
      <path d="M 0,0 H 309 V 250 H 0 Z" id="path2" inkscape:connector-curvature="0" style="fill:none;stroke:none" />
    </clipPath>
  </defs>
  <rect id="rect1028" width="316" height="255" x="0" y="0" fill="rgba(0,0,0,0)" />
  <g id="g1026" transform="translate(3.6480005)">
    <path style="fill:none;stroke:#000000;stroke-width:2.5;stroke-linecap:round;stroke-linejoin:round;stroke-miterlimit:10;stroke-opacity:1;paint-order:fill stroke markers" inkscape:connector-curvature="0" id="path9" stroke-miterlimit="10" d="M 33.83937,221.03051 V 38.7103" />
    <path style="fill:none;stroke:#000000;stroke-width:2.5;stroke-linecap:round;stroke-linejoin:round;stroke-miterlimit:10;stroke-opacity:1;paint-order:fill stroke markers" inkscape:connector-curvature="0" id="path11" stroke-miterlimit="10" d="m 33.83937,38.7103 243.0936,182.32021" />
    <path style="fill:none;stroke:#000000;stroke-width:2.5;stroke-linecap:round;stroke-linejoin:round;stroke-miterlimit:10;stroke-opacity:1;paint-order:fill stroke markers" inkscape:connector-curvature="0" id="path13" stroke-miterlimit="10" d="M 276.93297,221.03051 H 33.83937" />
    <path style="fill:none;stroke:#000000;stroke-width:2.5;stroke-linecap:round;stroke-linejoin:round;stroke-miterlimit:10;stroke-opacity:1;paint-order:fill stroke markers" inkscape:connector-curvature="0" id="path15" stroke-miterlimit="10" d="M 33.83937,196.72115 H 58.14873" />
    <path style="fill:none;stroke:#000000;stroke-width:2.5;stroke-linecap:round;stroke-linejoin:round;stroke-miterlimit:10;stroke-opacity:1;paint-order:fill stroke markers" inkscape:connector-curvature="0" id="path17" stroke-miterlimit="10" d="m 58.14873,196.72115 v 24.30936" />
    <g transform="matrix(19,0,0,19,172,125.45557)" id="g21">
      <path d="m 0.299,-0.678 v 0.62 H 0.424 V 0 H 0.095 V -0.058 H 0.22 v -0.52 q -0.051,0.022 -0.131,0.024 v -0.058 q 0.131,-0.005 0.19,-0.066 z" id="path19" inkscape:connector-curvature="0" style="fill:#000000;stroke:none;paint-order:stroke fill markers" />
    </g>
    <g transform="matrix(19,0,0,19,42.999992,108.75608)" id="g27">
      <path d="m 0.153,-0.592 v 0.206 q 0.046,-0.041 0.107,-0.041 0.078,0 0.1335,0.0655 0.0555,0.0655 0.0555,0.1585 0,0.094 -0.0645,0.1595 Q 0.32,0.022 0.23,0.022 0.171,0.022 0.121,-0.005 0.071,-0.032 0.039,-0.076 l 0.033,-0.056 q 0.022,0.041 0.065,0.067 0.043,0.026 0.092,0.026 0.008,0 0.0175,-0.001 Q 0.256,-0.041 0.2785,-0.05 0.301,-0.059 0.317,-0.0745 0.333,-0.09 0.3465,-0.124 0.36,-0.158 0.36,-0.205 0.36,-0.288 0.33,-0.327 0.3,-0.366 0.259,-0.366 0.219,-0.366 0.19,-0.3435 0.161,-0.321 0.147,-0.287 H 0.081 v -0.369 h 0.335 v 0.064 z" id="path25" inkscape:connector-curvature="0" style="fill:#000000;stroke:none;paint-order:stroke fill markers" />
    </g>
    <g transform="matrix(19,0,0,19,52.50003,108.75608)" id="g31">
      <path d="M 0.092,-0.514 0.056,-0.568 Q 0.087,-0.62 0.1385,-0.649 0.19,-0.678 0.248,-0.678 q 0.075,0 0.1285,0.044 0.0535,0.044 0.0535,0.108 0,0.05 -0.028,0.0965 -0.028,0.0465 -0.083,0.0755 0.056,0.017 0.097,0.0635 0.041,0.0465 0.041,0.1105 0,0.081 -0.0605,0.1415 Q 0.336,0.022 0.247,0.022 q -0.124,0 -0.205,-0.104 l 0.011,-0.06 q 0.032,0.049 0.085,0.076 0.053,0.027 0.107,0.027 0.056,0 0.0895,-0.041 0.0335,-0.041 0.0335,-0.101 0,-0.022 -0.0055,-0.044 Q 0.357,-0.247 0.344,-0.2705 0.331,-0.294 0.3035,-0.309 0.276,-0.324 0.238,-0.324 H 0.167 V -0.385 Q 0.242,-0.391 0.246,-0.392 0.291,-0.402 0.3195,-0.4405 0.348,-0.479 0.348,-0.526 0.348,-0.571 0.3185,-0.5955 0.289,-0.62 0.247,-0.62 q -0.048,0 -0.091,0.028 -0.043,0.028 -0.064,0.078 z" id="path29" inkscape:connector-curvature="0" style="fill:#000000;stroke:none;paint-order:stroke fill markers" />
    </g>
    <g transform="matrix(19,0,0,19,62.000068,108.75608)" id="g35">
      <path d="M 0.18,-0.083 V 0 H 0.097 v -0.083 z" id="path33" inkscape:connector-curvature="0" style="fill:#000000;stroke:none;paint-order:stroke fill markers" />
    </g>
    <g transform="matrix(19,0,0,19,67.277869,108.75608)" id="g39">
      <path d="m 0.299,-0.678 v 0.62 H 0.424 V 0 H 0.095 V -0.058 H 0.22 v -0.52 q -0.051,0.022 -0.131,0.024 v -0.058 q 0.131,-0.005 0.19,-0.066 z" id="path37" inkscape:connector-curvature="0" style="fill:#000000;stroke:none;paint-order:stroke fill markers" />
    </g>
    <g transform="matrix(19,0,0,19,76.777907,108.75608)" id="g43">
      <path d="M 0.092,-0.514 0.056,-0.568 Q 0.087,-0.62 0.1385,-0.649 0.19,-0.678 0.248,-0.678 q 0.075,0 0.1285,0.044 0.0535,0.044 0.0535,0.108 0,0.05 -0.028,0.0965 -0.028,0.0465 -0.083,0.0755 0.056,0.017 0.097,0.0635 0.041,0.0465 0.041,0.1105 0,0.081 -0.0605,0.1415 Q 0.336,0.022 0.247,0.022 q -0.124,0 -0.205,-0.104 l 0.011,-0.06 q 0.032,0.049 0.085,0.076 0.053,0.027 0.107,0.027 0.056,0 0.0895,-0.041 0.0335,-0.041 0.0335,-0.101 0,-0.022 -0.0055,-0.044 Q 0.357,-0.247 0.344,-0.2705 0.331,-0.294 0.3035,-0.309 0.276,-0.324 0.238,-0.324 H 0.167 V -0.385 Q 0.242,-0.391 0.246,-0.392 0.291,-0.402 0.3195,-0.4405 0.348,-0.479 0.348,-0.526 0.348,-0.571 0.3185,-0.5955 0.289,-0.62 0.247,-0.62 q -0.048,0 -0.091,0.028 -0.043,0.028 -0.064,0.078 z" id="path41" inkscape:connector-curvature="0" style="fill:#000000;stroke:none;paint-order:stroke fill markers" />
    </g>
    <g transform="matrix(13.3,0,0,13.3,86.277945,100.91113)" id="g47">
      <path d="m 0.443,-0.25 v 0 q 0,0.089 -0.067,0.147 -0.055,0.047 -0.127,0.047 -0.088,0 -0.146,-0.068 -0.047,-0.055 -0.047,-0.126 0,-0.089 0.067,-0.147 0.055,-0.047 0.127,-0.047 0.088,0 0.146,0.068 0.047,0.055 0.047,0.126 M 0.25,-0.096 v 0 q 0.075,0 0.121,-0.06 0.032,-0.042 0.032,-0.094 0,-0.076 -0.06,-0.122 -0.041,-0.032 -0.093,-0.032 -0.077,0 -0.124,0.062 -0.03,0.041 -0.03,0.092 0,0.075 0.059,0.121 0.042,0.033 0.095,0.033 z" id="path45" inkscape:connector-curvature="0" style="fill:#000000;stroke:none;paint-order:stroke fill markers" />
    </g>
    <g transform="matrix(19,0,0,19,12.999999,29.194454)" id="g53">
      <path d="M 0.377,-0.694 0.638,0 H 0.546 L 0.47,-0.204 H 0.179 L 0.102,0 H 0.028 L 0.289,-0.694 H 0.377 M 0.448,-0.26 0.357,-0.517 Q 0.328,-0.6 0.325,-0.622 H 0.324 Q 0.318,-0.589 0.265,-0.441 L 0.2,-0.26 Z" id="path51" inkscape:connector-curvature="0" style="fill:#000000;stroke:none;paint-order:stroke fill markers" />
    </g>
    <g transform="matrix(19,0,0,19,12.999999,243.19445)" id="g59">
      <path d="m 0.097,-0.694 h 0.237 q 0.105,0 0.177,0.052 0.072,0.052 0.072,0.122 0,0.055 -0.047,0.097 -0.047,0.042 -0.119,0.06 0.081,0.013 0.137,0.062 0.056,0.049 0.056,0.113 0,0.075 -0.0715,0.1315 Q 0.467,0 0.361,0 H 0.097 v -0.694 m 0.083,0.303 h 0.116 q 0.097,0 0.153,-0.039 0.056,-0.039 0.056,-0.089 0,-0.05 -0.058,-0.0845 Q 0.389,-0.638 0.306,-0.638 H 0.18 v 0.247 m 0,0.335 h 0.153 q 0.081,0 0.1385,-0.0385 0.0575,-0.0385 0.0575,-0.0945 0,-0.059 -0.0615,-0.1 Q 0.406,-0.33 0.325,-0.33 H 0.18 Z" id="path57" inkscape:connector-curvature="0" style="fill:#000000;stroke:none;paint-order:stroke fill markers" />
    </g>
    <g transform="matrix(19,0,0,19,284,242.19446)" id="g65">
      <path d="M 0.577,-0.681 0.562,-0.6 q -0.081,-0.052 -0.169,-0.052 -0.102,0 -0.1695,0.09 -0.0675,0.09 -0.0675,0.215 0,0.122 0.066,0.2135 0.066,0.0915 0.174,0.0915 0.055,0 0.0945,-0.012 Q 0.53,-0.066 0.582,-0.103 l 0.006,0.069 Q 0.534,-0.001 0.495,0.0105 0.456,0.022 0.395,0.022 q -0.142,0 -0.235,-0.11 -0.093,-0.11 -0.093,-0.259 0,-0.151 0.093,-0.26 0.093,-0.109 0.234,-0.109 0.091,0 0.183,0.035 z" id="path63" inkscape:connector-curvature="0" style="fill:#a38f8c;stroke:none;paint-order:stroke fill markers" />
    </g>
    <g transform="matrix(19,0,0,19,151,241.44445)" id="g71">
      <path d="M 0.399,-0.289 V 0 H 0.324 V -0.036 Q 0.263,0.011 0.158,0.011 0.1,0.011 0.072,-0.0295 0.044,-0.07 0.044,-0.113 0.044,-0.176 0.1225,-0.2095 0.201,-0.243 0.321,-0.245 v -0.043 q 0,-0.053 -0.025,-0.0835 -0.025,-0.0305 -0.062,-0.0305 -0.081,0 -0.151,0.05 L 0.077,-0.418 q 0.075,-0.043 0.157,-0.043 0.07,0 0.1175,0.0485 0.0475,0.0485 0.0475,0.1235 m -0.078,0.157 v -0.062 q -0.205,0.01 -0.205,0.079 0,0.03 0.0275,0.0475 0.0275,0.0175 0.0655,0.0175 0.047,0 0.078,-0.019 0.034,-0.019 0.034,-0.063 z" id="path69" inkscape:connector-curvature="0" style="fill:#a38f8c;stroke:none;paint-order:stroke fill markers" />
    </g>
    <g transform="matrix(19,0,0,19,14.999996,134.44445)" id="g77">
      <path d="m 0.41,-0.418 -0.012,0.065 q -0.04,-0.026 -0.07,-0.035 -0.03,-0.009 -0.071,-0.009 -0.05,0 -0.0835,0.028 Q 0.14,-0.341 0.127,-0.3035 0.114,-0.266 0.114,-0.223 q 0,0.074 0.0385,0.122 0.0385,0.048 0.1005,0.048 0.087,0 0.156,-0.054 L 0.415,-0.04 Q 0.341,0.011 0.252,0.011 0.16,0.011 0.098,-0.058 0.036,-0.127 0.036,-0.222 q 0,-0.095 0.0605,-0.167 0.0605,-0.072 0.1595,-0.072 0.046,0 0.078,0.009 0.032,0.009 0.076,0.034 z" id="path75" inkscape:connector-curvature="0" style="fill:#a38f8c;stroke:none;paint-order:stroke fill markers" />
    </g>
  </g>
</svg>
